Sources/FrostedUI/Resources/Icons.xcassets/roundedArrowAngleRight32.imageset/rounded-arrow-angle-right-32.svg

<svg width="32" height="32" viewBox="0 0 32 32" fill="none" xmlns="http://www.w3.org/2000/svg" data-fui-icon="true">
  <g clip-path="url(#clip0_6203_196)">
    <path
      fill-rule="evenodd"
      clip-rule="evenodd"
      d="M11.503 31.9998C5.15123 31.9998 0.00203323 26.8505 0.00198746 20.4988C0.00218201 14.1472 5.15132 8.9978 11.503 8.9978H29.4649L21.7842 1.27905C21.4922 0.985575 21.4929 0.510715 21.7862 0.218506C22.0797 -0.0735664 22.5545 -0.0728302 22.8467 0.220459L31.7862 9.20288C32.0771 9.49549 32.0772 9.96897 31.7862 10.2615L22.8467 19.2439C22.5546 19.5369 22.0796 19.5376 21.7862 19.2458C21.4928 18.9537 21.4922 18.4788 21.7842 18.1853L29.4336 10.4978H11.503C5.97975 10.4978 1.50218 14.9756 1.50199 20.4988C1.50203 26.0221 5.97965 30.4998 11.503 30.4998H14.4209C14.8348 30.5 15.1707 30.8359 15.1709 31.2498C15.1708 31.6637 14.8349 31.9995 14.4209 31.9998H11.503Z"
      fill="currentColor"
    />
  </g>
  <defs>
    <clipPath id="clip0_6203_196"><path fill="currentColor" d="M0 0H32V32H0z" /></clipPath>
  </defs>
</svg>

<svg xmlns="http://www.w3.org/2000/svg" width="32" height="32" fill="none" data-fui-icon="true" viewBox="0 0 32 32"><g clip-path="url(#a)"><path fill="currentColor" fill-rule="evenodd" d="M11.503 32C5.151 32 .002 26.85.002 20.499c0-6.352 5.15-11.501 11.501-11.501h17.962l-7.68-7.719A.75.75 0 0 1 22.846.22l8.94 8.983a.75.75 0 0 1 0 1.059l-8.94 8.982a.75.75 0 0 1-1.063-1.059l7.65-7.687H11.503c-5.523 0-10 4.478-10.001 10 0 5.524 4.478 10.002 10.001 10.002h2.918a.75.75 0 0 1 0 1.5z" clip-rule="evenodd"/></g><defs><clipPath id="a"><path fill="currentColor" d="M0 0h32v32H0z"/></clipPath></defs></svg>
